X: 061
Q: "Slowish"
M: 6/8
L: 1/8
K: A
V: 1
E |\
|: A |\
a3 g2f | {f}e2d c2e | f2B ~B2c | A3 A2 :|
V: 2 clef=bass middle=d
z |\
cBA a2c | B2g a2^d | e3 E3 | Ace a2 :|
|: z |\
zfd Bc^d | e2(g/f/) efg | a3 d2^d | (eef gfe) |\
(c'ba) ee'd' | (c'cB ABc) | d2^d e2E | Ace a2 :|


